X:1
T:The Phoenix
R:reel
M:4/4
L:1/8
K:D
ag|:~f2df edcA|B2dB ABde|fd~d2 edcA|B2dB ABde|
|fedf edcA|BAGB AGFE|Dddc defd|1 edcA d2ag:|2 edcA d2cA|]
|:B2FB Bcde|f2fd edcA|B2FB Bcde|fdec dBcA|
|B2FB BBGB|BcdB cBAc|BG~G2 Bcde|1 fdec d2cA:|2 fdec d2ag|]